svg/soccer.svg

<svg xmlns="http://www.w3.org/2000/svg" viewBox="0 0 64 64" enable-background="new 0 0 64 64"><style type="text/css">.st0{fill:#333333;}</style><title>soccer</title><desc>Created with Sketch.</desc><path class="st0" d="M32 0c-17.7 0-32 14.3-32 32 0 14 9 25.9 21.5 30.2v.2l.4-.1c3.2 1 6.5 1.6 10 1.6 17.7 0 32-14.3 32-32 .1-17.6-14.2-31.9-31.9-31.9zm11.4 46.1l-2.7-3.3 3.5-10.9 6.4-1.7 8.2 5.1c-.5 4.5-2.2 8.6-4.6 12.1l-10.8-1.3zm-23.2.4l-10 1.4c-2.6-3.6-4.4-7.9-5-12.6l8.2-5.1 6.4 1.7 3.4 10.7-3 3.9zm-15.2-15.8c.1-3.2.8-6.2 2-9l3.5 5.6-5.5 3.4zm21.8 10.3l-3.3-10.2 8.5-6.8 8.5 6.8-3.3 10.2h-10.4zm26.7-13.7l3.5-5.5c1.1 2.8 1.8 5.8 2 9l-5.5-3.5zm1.3-9.7l-5.5 8.7-6.1 1.7-9.2-7.4v-6.7l7.2-7.2c5.7 2 10.5 5.9 13.6 10.9zm-18-12.2l-4.8 4.8-4.8-4.8c1.5-.2 3.1-.4 4.8-.4 1.6 0 3.2.2 4.8.4zm-14.1 1.2l7.3 7.3v6.7l-9.3 7.5-6-1.6-5.5-8.9c3.1-5 7.9-8.9 13.5-11zm-9.4 44.9l6.5-.9.8 5.9c-2.6-1.2-5.1-3-7.3-5zm11.7 6.6l-1.3-9.5 2.9-3.6h10.8l3 3.7-1.2 9.3c-2.3.6-4.7 1-7.2 1-2.4 0-4.8-.3-7-.9zm18.5-1.6l.8-6.3 6.9.8c-2.3 2.3-4.9 4.1-7.7 5.5z"/></svg>

<?xml version="1.0" encoding="utf-8"?>
<!-- Generator: Adobe Illustrator 21.0.0, SVG Export Plug-In . SVG Version: 6.00 Build 0)  -->
<svg version="1.1" id="Layer_1" xmlns="http://www.w3.org/2000/svg" xmlns:xlink="http://www.w3.org/1999/xlink" x="0px" y="0px"
	 viewBox="0 0 64 64" style="enable-background:new 0 0 64 64;" xml:space="preserve">
<style type="text/css">
	.st0{fill:#333333;}
</style>
<title>soccer</title>
<desc>Created with Sketch.</desc>
<path class="st0" d="M32,0C14.3,0,0,14.3,0,32c0,14,9,25.9,21.5,30.2l0,0.2l0.4-0.1c3.2,1,6.5,1.6,10,1.6c17.7,0,32-14.3,32-32
	C64,14.3,49.7,0,32,0z M43.4,46.1l-2.7-3.3l3.5-10.9l6.4-1.7l8.2,5.1c-0.5,4.5-2.2,8.6-4.6,12.1L43.4,46.1z M20.2,46.5l-10,1.4
	c-2.6-3.6-4.4-7.9-5-12.6l8.2-5.1l6.4,1.7l3.4,10.7L20.2,46.5z M5,30.7c0.1-3.2,0.8-6.2,2-9l3.5,5.6L5,30.7z M26.8,41l-3.3-10.2
	l8.5-6.8l8.5,6.8L37.2,41H26.8z M53.5,27.3l3.5-5.5c1.1,2.8,1.8,5.8,2,9L53.5,27.3z M54.8,17.6l-5.5,8.7L43.2,28L34,20.6v-6.7
	l7.2-7.2C46.9,8.7,51.7,12.6,54.8,17.6z M36.8,5.4L32,10.2l-4.8-4.8C28.7,5.2,30.3,5,32,5C33.6,5,35.2,5.2,36.8,5.4z M22.7,6.6
	l7.3,7.3v6.7l-9.3,7.5l-6-1.6l-5.5-8.9C12.3,12.6,17.1,8.7,22.7,6.6z M13.3,51.5l6.5-0.9l0.8,5.9C18,55.3,15.5,53.5,13.3,51.5z
	 M25,58.1l-1.3-9.5l2.9-3.6h10.8l3,3.7L39.2,58c-2.3,0.6-4.7,1-7.2,1C29.6,59,27.2,58.7,25,58.1z M43.5,56.5l0.8-6.3l6.9,0.8
	C48.9,53.3,46.3,55.1,43.5,56.5z"/>
</svg>
